themes/default/assets/images/icons/micro/micro-icon-branding.svg

<?xml version="1.0" encoding="UTF-8"?>
<svg width="32px" height="32px" viewBox="0 0 32 32" version="1.1" xmlns="http://www.w3.org/2000/svg" xmlns:xlink="http://www.w3.org/1999/xlink">
    <!-- Generator: sketchtool 59 (101010) - https://sketch.com -->
    <title>B1B86B7B-E890-4EF2-93DB-8E9F65DB5161</title>
    <desc>Created with sketchtool.</desc>
    <g id="Page-1" stroke="none" stroke-width="1" fill="none" fill-rule="evenodd">
        <g id="Icons" transform="translate(-134.000000, -1157.000000)" fill-rule="nonzero">
            <g id="micro-icon-branding" transform="translate(134.000000, 1157.000000)">
                <path d="M29.41,32 L2.59,32 C1.1595825,32 0,30.8404175 0,29.41 L0,2.59 C0,1.1595825 1.1595825,0 2.59,0 L29.41,0 C30.8404175,0 32,1.1595825 32,2.59 L32,29.41 C32,30.8404175 30.8404175,32 29.41,32 Z M2.59,1.36 C1.91068976,1.36 1.36,1.91068976 1.36,2.59 L1.36,29.41 C1.36,30.0893102 1.91068976,30.64 2.59,30.64 L29.41,30.64 C30.0893102,30.64 30.64,30.0893102 30.64,29.41 L30.64,2.59 C30.64,1.91068976 30.0893102,1.36 29.41,1.36 L2.59,1.36 Z" id="Shape" fill="#A8C5DD"></path>
                <path d="M23.62,25.41 L18.81,25.41 L18.81,14.48 C18.81,14.38 18.62,11.26 16,11.26 C15.2583779,11.2106394 14.5308886,11.4798104 14,12 C13.2768744,13.0182932 12.9239917,14.2533829 13,15.5 L13,25.38 L8.37,25.38 L8.37,6.59 L13.37,6.59 L13.37,7.82 C14.6107507,7.13263539 16.011946,6.78751339 17.43,6.82 C19.0399574,6.743119 20.6067698,7.35384866 21.74,8.5 C23.82,10.71 23.63,14.24 23.62,14.39 L23.62,25.41 Z M20.15,24.07 L22.28,24.07 L22.28,14.35 C22.28,14.28 22.44,11.2 20.76,9.41 C19.8826308,8.52904542 18.6715469,8.06352366 17.43,8.13 C15.878185,8.03325954 14.3530031,8.56689294 13.2,9.61 C13.082432,9.74466976 12.9159207,9.82677068 12.7375077,9.83803887 C12.5590947,9.84930706 12.3835771,9.78880796 12.25,9.67 C12.0402611,9.51669513 11.9419515,9.25322555 12,9 C11.9952114,8.95679896 11.9952114,8.91320104 12,8.87 L12,7.87 L9.72,7.87 L9.72,24.07 L11.66,24.07 L11.66,15.57 C11.5569461,13.9737835 12.0326852,12.3939033 13,11.12 C13.7802318,10.3061994 14.8737628,9.86878702 16,9.92 C19.12,9.92 20.08,12.92 20.15,14.45 L20.15,24.07 Z" id="Shape" fill="#2969F6"></path>
            </g>
        </g>
    </g>
</svg>

<svg width="32" height="32" xmlns="http://www.w3.org/2000/svg"><g fill-rule="nonzero" fill="none"><path d="M29.41 32H2.59A2.59 2.59 0 010 29.41V2.59A2.59 2.59 0 012.59 0h26.82A2.59 2.59 0 0132 2.59v26.82A2.59 2.59 0 0129.41 32zM2.59 1.36c-.68 0-1.23.55-1.23 1.23v26.82c0 .68.55 1.23 1.23 1.23h26.82c.68 0 1.23-.55 1.23-1.23V2.59c0-.68-.55-1.23-1.23-1.23H2.59z" fill="#A8C5DD"/><path d="M23.62 25.41h-4.81V14.48c0-.1-.19-3.22-2.81-3.22a2.61 2.61 0 00-2 .74 5.47 5.47 0 00-1 3.5v9.88H8.37V6.59h5v1.23a8 8 0 014.06-1 5.68 5.68 0 014.31 1.68c2.08 2.21 1.89 5.74 1.88 5.89v11.02zm-3.47-1.34h2.13v-9.72c0-.07.16-3.15-1.52-4.94a4.37 4.37 0 00-3.33-1.28 5.77 5.77 0 00-4.23 1.48.67.67 0 01-.95.06A.65.65 0 0112 9a.59.59 0 010-.13v-1H9.72v16.2h1.94v-8.5A6.65 6.65 0 0113 11.12a3.91 3.91 0 013-1.2c3.12 0 4.08 3 4.15 4.53v9.62z" fill="#2969F6"/></g></svg>
